P3
# A distinct deterministic raster fixture representing the approved replacement animal.
8 8
255
238 230 210 238 230 210 238 230 210 238 230 210 238 230 210 238 230 210 238 230 210 238 230 210
238 230 210 238 230 210 180 130 75 180 130 75 180 130 75 180 130 75 238 230 210 238 230 210
238 230 210 180 130 75 210 165 105 210 165 105 210 165 105 210 165 105 180 130 75 238 230 210
238 230 210 180 130 75 250 245 225 35 30 25 35 30 25 250 245 225 180 130 75 238 230 210
238 230 210 238 230 210 180 130 75 250 245 225 250 245 225 180 130 75 238 230 210 238 230 210
238 230 210 225 185 70 225 185 70 225 185 70 225 185 70 225 185 70 225 185 70 238 230 210
238 230 210 205 160 55 205 160 55 205 160 55 205 160 55 205 160 55 205 160 55 238 230 210
238 230 210 238 230 210 238 230 210 238 230 210 238 230 210 238 230 210 238 230 210 238 230 210
