P3
# A tiny deterministic raster fixture representing an orange animal on a blue cushion.
8 8
255
245 240 225 245 240 225 245 240 225 245 240 225 245 240 225 245 240 225 245 240 225 245 240 225
245 240 225 245 240 225 215 120 45 215 120 45 215 120 45 215 120 45 245 240 225 245 240 225
245 240 225 215 120 45 235 155 70 235 155 70 235 155 70 235 155 70 215 120 45 245 240 225
245 240 225 215 120 45 235 155 70 40 35 30 235 155 70 40 35 30 215 120 45 245 240 225
245 240 225 245 240 225 215 120 45 235 155 70 235 155 70 215 120 45 245 240 225 245 240 225
245 240 225 70 125 180 70 125 180 70 125 180 70 125 180 70 125 180 70 125 180 245 240 225
245 240 225 60 110 165 60 110 165 60 110 165 60 110 165 60 110 165 60 110 165 245 240 225
245 240 225 245 240 225 245 240 225 245 240 225 245 240 225 245 240 225 245 240 225 245 240 225
